Newaita-dark/apps/48/com.github.arshubham.cipher.svg

<svg height="48pt" viewBox="0 0 48 48" width="48pt" xmlns="http://www.w3.org/2000/svg" xmlns:xlink="http://www.w3.org/1999/xlink"><linearGradient id="a"><stop offset="0" stop-opacity=".313725"/><stop offset=".222222" stop-opacity=".27451"/><stop offset="1" stop-opacity="0"/></linearGradient><radialGradient id="b" cx="450.90894" cy="189.57936" gradientTransform="matrix(.00000026 -.117199 -.210958 -.00000015 73.234563 95.392999)" gradientUnits="userSpaceOnUse" r="21.166656" xlink:href="#a"/><radialGradient id="c" cx="450.90894" cy="189.57936" gradientTransform="matrix(-.00000026 .117199 .210958 .00000015 -25.605012 -11.29122)" gradientUnits="userSpaceOnUse" r="21.166656" xlink:href="#a"/><radialGradient id="d" cx="450.90894" cy="189.57936" gradientTransform="matrix(-.00000026 -.117199 .210958 -.00000015 -25.605012 95.392999)" gradientUnits="userSpaceOnUse" r="21.166656" xlink:href="#a"/><radialGradient id="e" cx="450.90894" cy="189.57936" gradientTransform="matrix(.00000026 .117199 -.210958 .00000015 73.23456 -11.291221)" gradientUnits="userSpaceOnUse" r="21.166656" xlink:href="#a"/><linearGradient id="f" gradientTransform="matrix(.400801 0 0 .074923 -78.518993 24.955063)" gradientUnits="userSpaceOnUse" x1="255.32297" x2="255.32304" y1="228.17859" y2="254.66666"><stop offset="0" stop-opacity=".27451"/><stop offset="1" stop-opacity="0"/></linearGradient><linearGradient id="g" gradientUnits="userSpaceOnUse" x1="23.814786" x2="23.814786" y1="42.0509015" y2="22.20524656251"><stop offset="0" stop-color="#26a69a"/><stop offset="1" stop-color="#4db6ac"/></linearGradient><linearGradient id="h" gradientUnits="userSpaceOnUse" x1="23.814816" x2="23.814816" y1="42.05096669922" y2="4.34417271465"><stop offset="0" stop-color="#bdbdbd"/><stop offset="1" stop-color="#eee"/></linearGradient><linearGradient id="i"><stop offset="0" stop-color="#26a69a"/><stop offset=".510345" stop-color="#4db6ac"/><stop offset="1" stop-color="#26a69a"/></linearGradient><linearGradient id="j" gradientUnits="userSpaceOnUse" x1="125.5" x2="181.41667" xlink:href="#i" y1="127.66667" y2="127.66667"/><linearGradient id="k" gradientUnits="userSpaceOnUse" x1="326.58334" x2="382.49994" xlink:href="#i" y1="127.66667" y2="127.66667"/><path d="m33.738281 42.050781h3.96875v-1.984375h-3.96875zm0 0" fill="url(#b)"/><path d="m13.890625 42.050781h-3.96875v1.984375h3.96875zm0 0" fill="url(#c)"/><path d="m13.890625 42.050781h-3.96875v-1.984375h3.96875zm0 0" fill="url(#d)"/><path d="m33.738281 42.050781h3.96875v1.984375h-3.96875zm0 0" fill="url(#e)"/><path d="m13.890625 42.054688h19.847656v1.980468h-19.847656zm0 0" fill="url(#f)"/><path d="m11.90625 22.207031h23.816406c1.09375 0 1.984375.886719 1.984375 1.984375v15.875c0 1.097656-.890625 1.984375-1.984375 1.984375h-23.816406c-1.09375 0-1.984375-.886719-1.984375-1.984375v-15.875c0-1.097656.890625-1.984375 1.984375-1.984375zm0 0" fill="url(#g)"/><path d="m23.816406 4.34375c-6.046875 0-10.917968 4.867188-10.917968 10.914062v6.949219h2.976562v-6.949219c0-4.394531 3.542969-7.9375 7.941406-7.9375 4.394532 0 7.9375 3.542969 7.9375 7.9375v6.949219h2.976563v-6.949219c0-6.046874-4.867188-10.914062-10.914063-10.914062zm0 0" fill="url(#h)"/><path d="m23.816406 4.34375c-6.046875 0-10.917968 4.867188-10.917968 10.914062v6.949219h2.976562v-6.949219c0-4.394531 3.542969-7.9375 7.941406-7.9375 4.394532 0 7.9375 3.542969 7.9375 7.9375v6.949219h2.976563v-6.949219c0-6.046874-4.867188-10.914062-10.914063-10.914062zm0 0" fill="#cfcfcf"/><path d="m23.816406 4.34375c-6.046875 0-10.917968 4.867188-10.917968 10.914062v.496094c0-6.046875 4.871093-10.914062 10.917968-10.914062s10.914063 4.867187 10.914063 10.914062v-.496094c0-6.046874-4.867188-10.914062-10.914063-10.914062zm0 0" fill="#fff" fill-opacity=".784314"/><path d="m23.816406 6.824219c-4.398437 0-7.941406 3.542969-7.941406 7.9375v.496093c0-4.394531 3.542969-7.9375 7.941406-7.9375 4.394532 0 7.9375 3.542969 7.9375 7.9375v-.496093c0-4.394531-3.542968-7.9375-7.9375-7.9375zm-10.917968 14.886719v.496093h2.976562v-.496093zm18.855468 0v.496093h2.976563v-.496093zm0 0" fill-opacity=".235294"/><g stroke="#212121" stroke-linecap="round" stroke-linejoin="round"><path d="m960.065811 175.101391c-243.756253 0-440.115457 196.201739-440.115457 439.957992v280.130732h119.988543v-280.130732c0-177.14844 142.821009-319.969449 320.126914-319.969449 177.148439 0 319.969448 142.821009 319.969448 319.969449v280.130732h119.988543v-280.130732c0-243.756253-196.201738-439.957992-439.957991-439.957992zm0 0" fill="none" stroke-width="11.338583" transform="scale(.0248071)"/><path d="m126.987873 21.852382h52.911614v211.646455h-52.911614zm0 0" fill="none" stroke-width="3" transform="matrix(.093759 0 0 .093759 0 20.158175)"/><path d="m126.987873 21.852382h52.911614v211.646455h-52.911614zm0 0" fill="url(#j)" stroke-width="3" transform="matrix(.093759 0 0 .093759 0 20.158175)"/><path d="m328.093669 21.852382h52.911613v211.646455h-52.911613zm0 0" fill="none" stroke-width="3" transform="matrix(.093759 0 0 .093759 0 20.158175)"/><path d="m328.093669 21.852382h52.911613v211.646455h-52.911613zm0 0" fill="url(#k)" stroke-width="3" transform="matrix(.093759 0 0 .093759 0 20.158175)"/></g><path d="m11.90625 42.050781c-1.097656 0-1.984375-.886719-1.984375-1.984375v-.992187c0 1.097656.886719 1.984375 1.984375 1.984375h23.816406c1.097656 0 1.984375-.886719 1.984375-1.984375v.992187c0 1.097656-.886719 1.984375-1.984375 1.984375zm0 0" fill-opacity=".235294"/><path d="m11.90625 22.207031c-1.097656 0-1.984375.882813-1.984375 1.984375v.992188c0-1.101563.886719-1.984375 1.984375-1.984375h23.816406c1.097656 0 1.984375.882812 1.984375 1.984375v-.992188c0-1.101562-.886719-1.984375-1.984375-1.984375zm0 0" fill="#fff" fill-opacity=".392157"/><path d="m11.90625 22.066406c-1.171875 0-2.125.949219-2.125 2.125v15.875c0 1.175782.953125 2.125 2.125 2.125h23.816406c1.175782 0 2.125-.949218 2.125-2.125v-15.875c0-1.175781-.949218-2.125-2.125-2.125zm0 .28125h23.816406c1.023438 0 1.84375.816406 1.84375 1.84375v15.875c0 1.023438-.820312 1.84375-1.84375 1.84375h-23.816406c-1.023438 0-1.84375-.820312-1.84375-1.84375v-15.875c0-1.027344.820312-1.84375 1.84375-1.84375zm0 0" fill="#212121"/></svg>

<?xml version="1.0" encoding="UTF-8"?>
<svg xmlns="http://www.w3.org/2000/svg" xmlns:xlink="http://www.w3.org/1999/xlink" width="48pt" height="48pt" viewBox="0 0 48 48" version="1.1">
<defs>
<radialGradient id="radial0" gradientUnits="userSpaceOnUse" cx="450.90894" cy="189.57936" fx="450.90894" fy="189.57936" r="21.166656" gradientTransform="matrix(0.000000261256,-0.117199,-0.210958,-0.000000152308,73.234563,95.392999)">
<stop offset="0" style="stop-color:rgb(0%,0%,0%);stop-opacity:0.313725;"/>
<stop offset="0.222222" style="stop-color:rgb(0%,0%,0%);stop-opacity:0.27451;"/>
<stop offset="1" style="stop-color:rgb(0%,0%,0%);stop-opacity:0;"/>
</radialGradient>
<radialGradient id="radial1" gradientUnits="userSpaceOnUse" cx="450.90894" cy="189.57936" fx="450.90894" fy="189.57936" r="21.166656" gradientTransform="matrix(-0.000000261256,0.117199,0.210958,0.000000152308,-25.605012,-11.29122)">
<stop offset="0" style="stop-color:rgb(0%,0%,0%);stop-opacity:0.313725;"/>
<stop offset="0.222222" style="stop-color:rgb(0%,0%,0%);stop-opacity:0.27451;"/>
<stop offset="1" style="stop-color:rgb(0%,0%,0%);stop-opacity:0;"/>
</radialGradient>
<radialGradient id="radial2" gradientUnits="userSpaceOnUse" cx="450.90894" cy="189.57936" fx="450.90894" fy="189.57936" r="21.166656" gradientTransform="matrix(-0.000000261256,-0.117199,0.210958,-0.000000152308,-25.605012,95.392999)">
<stop offset="0" style="stop-color:rgb(0%,0%,0%);stop-opacity:0.313725;"/>
<stop offset="0.222222" style="stop-color:rgb(0%,0%,0%);stop-opacity:0.27451;"/>
<stop offset="1" style="stop-color:rgb(0%,0%,0%);stop-opacity:0;"/>
</radialGradient>
<radialGradient id="radial3" gradientUnits="userSpaceOnUse" cx="450.90894" cy="189.57936" fx="450.90894" fy="189.57936" r="21.166656" gradientTransform="matrix(0.000000261256,0.117199,-0.210958,0.000000152308,73.23456,-11.291221)">
<stop offset="0" style="stop-color:rgb(0%,0%,0%);stop-opacity:0.313725;"/>
<stop offset="0.222222" style="stop-color:rgb(0%,0%,0%);stop-opacity:0.27451;"/>
<stop offset="1" style="stop-color:rgb(0%,0%,0%);stop-opacity:0;"/>
</radialGradient>
<linearGradient id="linear0" gradientUnits="userSpaceOnUse" x1="255.32297" y1="228.17859" x2="255.32304" y2="254.66666" gradientTransform="matrix(0.400801,0,0,0.074923,-78.518993,24.955063)">
<stop offset="0" style="stop-color:rgb(0%,0%,0%);stop-opacity:0.27451;"/>
<stop offset="1" style="stop-color:rgb(0%,0%,0%);stop-opacity:0;"/>
</linearGradient>
<linearGradient id="linear1" gradientUnits="userSpaceOnUse" x1="254" y1="233.5" x2="254" y2="21.833334" gradientTransform="matrix(0.093759,0,0,0.093759,0,20.158175)">
<stop offset="0" style="stop-color:rgb(14.901961%,65.098039%,60.392157%);stop-opacity:1;"/>
<stop offset="1" style="stop-color:rgb(30.196078%,71.372549%,67.45098%);stop-opacity:1;"/>
</linearGradient>
<linearGradient id="linear2" gradientUnits="userSpaceOnUse" x1="960" y1="1695.1182" x2="960" y2="175.11812" gradientTransform="matrix(0.0248071,0,0,0.0248071,0,0)">
<stop offset="0" style="stop-color:rgb(74.117647%,74.117647%,74.117647%);stop-opacity:1;"/>
<stop offset="1" style="stop-color:rgb(93.333333%,93.333333%,93.333333%);stop-opacity:1;"/>
</linearGradient>
<linearGradient id="linear3" gradientUnits="userSpaceOnUse" x1="125.5" y1="127.66667" x2="181.41667" y2="127.66667" gradientTransform="matrix(1,0,0,1,0,0)">
<stop offset="0" style="stop-color:rgb(14.901961%,65.098039%,60.392157%);stop-opacity:1;"/>
<stop offset="0.510345" style="stop-color:rgb(30.196078%,71.372549%,67.45098%);stop-opacity:1;"/>
<stop offset="1" style="stop-color:rgb(14.901961%,65.098039%,60.392157%);stop-opacity:1;"/>
</linearGradient>
<linearGradient id="linear4" gradientUnits="userSpaceOnUse" x1="326.58334" y1="127.66667" x2="382.49994" y2="127.66667" gradientTransform="matrix(1,0,0,1,0,0)">
<stop offset="0" style="stop-color:rgb(14.901961%,65.098039%,60.392157%);stop-opacity:1;"/>
<stop offset="0.510345" style="stop-color:rgb(30.196078%,71.372549%,67.45098%);stop-opacity:1;"/>
<stop offset="1" style="stop-color:rgb(14.901961%,65.098039%,60.392157%);stop-opacity:1;"/>
</linearGradient>
</defs>
<g id="surface1">
<path style=" stroke:none;fill-rule:nonzero;fill:url(#radial0);" d="M 33.738281 42.050781 L 37.707031 42.050781 L 37.707031 40.066406 L 33.738281 40.066406 Z M 33.738281 42.050781 "/>
<path style=" stroke:none;fill-rule:nonzero;fill:url(#radial1);" d="M 13.890625 42.050781 L 9.921875 42.050781 L 9.921875 44.035156 L 13.890625 44.035156 Z M 13.890625 42.050781 "/>
<path style=" stroke:none;fill-rule:nonzero;fill:url(#radial2);" d="M 13.890625 42.050781 L 9.921875 42.050781 L 9.921875 40.066406 L 13.890625 40.066406 Z M 13.890625 42.050781 "/>
<path style=" stroke:none;fill-rule:nonzero;fill:url(#radial3);" d="M 33.738281 42.050781 L 37.707031 42.050781 L 37.707031 44.035156 L 33.738281 44.035156 Z M 33.738281 42.050781 "/>
<path style=" stroke:none;fill-rule:nonzero;fill:url(#linear0);" d="M 13.890625 42.054688 L 33.738281 42.054688 L 33.738281 44.035156 L 13.890625 44.035156 Z M 13.890625 42.054688 "/>
<path style=" stroke:none;fill-rule:nonzero;fill:url(#linear1);" d="M 11.90625 22.207031 L 35.722656 22.207031 C 36.816406 22.207031 37.707031 23.09375 37.707031 24.191406 L 37.707031 40.066406 C 37.707031 41.164062 36.816406 42.050781 35.722656 42.050781 L 11.90625 42.050781 C 10.8125 42.050781 9.921875 41.164062 9.921875 40.066406 L 9.921875 24.191406 C 9.921875 23.09375 10.8125 22.207031 11.90625 22.207031 Z M 11.90625 22.207031 "/>
<path style=" stroke:none;fill-rule:nonzero;fill:url(#linear2);" d="M 23.816406 4.34375 C 17.769531 4.34375 12.898438 9.210938 12.898438 15.257812 L 12.898438 22.207031 L 15.875 22.207031 L 15.875 15.257812 C 15.875 10.863281 19.417969 7.320312 23.816406 7.320312 C 28.210938 7.320312 31.753906 10.863281 31.753906 15.257812 L 31.753906 22.207031 L 34.730469 22.207031 L 34.730469 15.257812 C 34.730469 9.210938 29.863281 4.34375 23.816406 4.34375 Z M 23.816406 4.34375 "/>
<path style=" stroke:none;fill-rule:nonzero;fill:rgb(81.176471%,81.176471%,81.176471%);fill-opacity:1;" d="M 23.816406 4.34375 C 17.769531 4.34375 12.898438 9.210938 12.898438 15.257812 L 12.898438 22.207031 L 15.875 22.207031 L 15.875 15.257812 C 15.875 10.863281 19.417969 7.320312 23.816406 7.320312 C 28.210938 7.320312 31.753906 10.863281 31.753906 15.257812 L 31.753906 22.207031 L 34.730469 22.207031 L 34.730469 15.257812 C 34.730469 9.210938 29.863281 4.34375 23.816406 4.34375 Z M 23.816406 4.34375 "/>
<path style=" stroke:none;fill-rule:nonzero;fill:rgb(100%,100%,100%);fill-opacity:0.784314;" d="M 23.816406 4.34375 C 17.769531 4.34375 12.898438 9.210938 12.898438 15.257812 L 12.898438 15.753906 C 12.898438 9.707031 17.769531 4.839844 23.816406 4.839844 C 29.863281 4.839844 34.730469 9.707031 34.730469 15.753906 L 34.730469 15.257812 C 34.730469 9.210938 29.863281 4.34375 23.816406 4.34375 Z M 23.816406 4.34375 "/>
<path style=" stroke:none;fill-rule:nonzero;fill:rgb(0%,0%,0%);fill-opacity:0.235294;" d="M 23.816406 6.824219 C 19.417969 6.824219 15.875 10.367188 15.875 14.761719 L 15.875 15.257812 C 15.875 10.863281 19.417969 7.320312 23.816406 7.320312 C 28.210938 7.320312 31.753906 10.863281 31.753906 15.257812 L 31.753906 14.761719 C 31.753906 10.367188 28.210938 6.824219 23.816406 6.824219 Z M 12.898438 21.710938 L 12.898438 22.207031 L 15.875 22.207031 L 15.875 21.710938 Z M 31.753906 21.710938 L 31.753906 22.207031 L 34.730469 22.207031 L 34.730469 21.710938 Z M 31.753906 21.710938 "/>
<path style="fill:none;stroke-width:11.338583;stroke-linecap:round;stroke-linejoin:round;stroke:rgb(12.941176%,12.941176%,12.941176%);stroke-opacity:1;stroke-miterlimit:4;" d="M 960.065811 175.101391 C 716.309558 175.101391 519.950354 371.30313 519.950354 615.059383 L 519.950354 895.190115 L 639.938897 895.190115 L 639.938897 615.059383 C 639.938897 437.910943 782.759906 295.089934 960.065811 295.089934 C 1137.21425 295.089934 1280.035259 437.910943 1280.035259 615.059383 L 1280.035259 895.190115 L 1400.023802 895.190115 L 1400.023802 615.059383 C 1400.023802 371.30313 1203.822064 175.101391 960.065811 175.101391 Z M 960.065811 175.101391 " transform="matrix(0.0248071,0,0,0.0248071,0,0)"/>
<path style="fill:none;stroke-width:3;stroke-linecap:round;stroke-linejoin:round;stroke:rgb(12.941176%,12.941176%,12.941176%);stroke-opacity:1;stroke-miterlimit:4;" d="M 126.987873 21.852382 L 179.899487 21.852382 L 179.899487 233.498837 L 126.987873 233.498837 Z M 126.987873 21.852382 " transform="matrix(0.093759,0,0,0.093759,0,20.158175)"/>
<path style="fill-rule:nonzero;fill:url(#linear3);stroke-width:3;stroke-linecap:round;stroke-linejoin:round;stroke:rgb(12.941176%,12.941176%,12.941176%);stroke-opacity:1;stroke-miterlimit:4;" d="M 126.987873 21.852382 L 179.899487 21.852382 L 179.899487 233.498837 L 126.987873 233.498837 Z M 126.987873 21.852382 " transform="matrix(0.093759,0,0,0.093759,0,20.158175)"/>
<path style="fill:none;stroke-width:3;stroke-linecap:round;stroke-linejoin:round;stroke:rgb(12.941176%,12.941176%,12.941176%);stroke-opacity:1;stroke-miterlimit:4;" d="M 328.093669 21.852382 L 381.005282 21.852382 L 381.005282 233.498837 L 328.093669 233.498837 Z M 328.093669 21.852382 " transform="matrix(0.093759,0,0,0.093759,0,20.158175)"/>
<path style="fill-rule:nonzero;fill:url(#linear4);stroke-width:3;stroke-linecap:round;stroke-linejoin:round;stroke:rgb(12.941176%,12.941176%,12.941176%);stroke-opacity:1;stroke-miterlimit:4;" d="M 328.093669 21.852382 L 381.005282 21.852382 L 381.005282 233.498837 L 328.093669 233.498837 Z M 328.093669 21.852382 " transform="matrix(0.093759,0,0,0.093759,0,20.158175)"/>
<path style=" stroke:none;fill-rule:nonzero;fill:rgb(0%,0%,0%);fill-opacity:0.235294;" d="M 11.90625 42.050781 C 10.808594 42.050781 9.921875 41.164062 9.921875 40.066406 L 9.921875 39.074219 C 9.921875 40.171875 10.808594 41.058594 11.90625 41.058594 L 35.722656 41.058594 C 36.820312 41.058594 37.707031 40.171875 37.707031 39.074219 L 37.707031 40.066406 C 37.707031 41.164062 36.820312 42.050781 35.722656 42.050781 Z M 11.90625 42.050781 "/>
<path style=" stroke:none;fill-rule:nonzero;fill:rgb(100%,100%,100%);fill-opacity:0.392157;" d="M 11.90625 22.207031 C 10.808594 22.207031 9.921875 23.089844 9.921875 24.191406 L 9.921875 25.183594 C 9.921875 24.082031 10.808594 23.199219 11.90625 23.199219 L 35.722656 23.199219 C 36.820312 23.199219 37.707031 24.082031 37.707031 25.183594 L 37.707031 24.191406 C 37.707031 23.089844 36.820312 22.207031 35.722656 22.207031 Z M 11.90625 22.207031 "/>
<path style=" stroke:none;fill-rule:nonzero;fill:rgb(12.941176%,12.941176%,12.941176%);fill-opacity:1;" d="M 11.90625 22.066406 C 10.734375 22.066406 9.78125 23.015625 9.78125 24.191406 L 9.78125 40.066406 C 9.78125 41.242188 10.734375 42.191406 11.90625 42.191406 L 35.722656 42.191406 C 36.898438 42.191406 37.847656 41.242188 37.847656 40.066406 L 37.847656 24.191406 C 37.847656 23.015625 36.898438 22.066406 35.722656 22.066406 Z M 11.90625 22.347656 L 35.722656 22.347656 C 36.746094 22.347656 37.566406 23.164062 37.566406 24.191406 L 37.566406 40.066406 C 37.566406 41.089844 36.746094 41.910156 35.722656 41.910156 L 11.90625 41.910156 C 10.882812 41.910156 10.0625 41.089844 10.0625 40.066406 L 10.0625 24.191406 C 10.0625 23.164062 10.882812 22.347656 11.90625 22.347656 Z M 11.90625 22.347656 "/>
</g>
</svg>
